assets/ai/ai-pubmed-square.svg

<svg xmlns="http://www.w3.org/2000/svg" width="100%" height="100%" viewBox="-75.52 -43.52 599.04 599.04"><path d="M 48 32 C 21.5 32 0 53.5 0 80 L 0 432 C 0 458.5 21.5 480 48 480 L 400 480 C 426.5 480 448 458.5 448 432 L 448 80 C 448 53.5 426.5 32 400 32 L 48 32 z M 117.56445 96 C 117.56445 96 166.6561 107.12539 164.16016 190.78125 C 164.16016 190.78125 205.6305 73.609757 368.72656 192.42969 C 368.72656 235.21757 368.41211 364.67215 368.41211 416 C 191.51478 266.12011 161.02734 393.93164 161.02734 393.93164 C 161.02734 314.07584 79.273438 323.5918 79.273438 323.5918 L 79.273438 110.94141 C 79.273438 110.94141 98.028613 112.34351 117.56445 122.05273 L 117.56445 96 z M 203.71094 194.2832 L 179.70898 335.63281 L 216.27148 335.63281 L 228.08594 254.25391 L 228.45898 254.25391 L 260.90625 335.63281 L 275.53906 335.63281 L 309.47852 254.25391 L 309.85156 254.25391 L 320.16602 335.63281 L 356.94922 335.63281 L 335.54688 194.2832 L 298.98438 194.2832 L 268.5957 269.82422 L 239.90039 194.2832 L 203.71094 194.2832 z"/></svg>

<svg xmlns="http://www.w3.org/2000/svg" width="100%" height="100%" viewBox="-75.52 -43.52 599.04 599.04"><path d="M48 32C21.5 32 0 53.5 0 80v352c0 26.5 21.5 48 48 48h352c26.5 0 48-21.5 48-48V80c0-26.5-21.5-48-48-48H48zm69.564 64s49.092 11.125 46.596 94.781c0 0 41.47-117.171 204.567 1.649 0 42.788-.315 172.242-.315 223.57-176.897-149.88-207.385-22.068-207.385-22.068 0-79.856-81.754-70.34-81.754-70.34v-212.65s18.756 1.402 38.291 11.11V96zm86.147 98.283l-24.002 141.35h36.562l11.815-81.38h.373l32.447 81.38h14.633l33.94-81.38h.373l10.314 81.38h36.783l-21.402-141.35h-36.563l-30.388 75.541-28.696-75.54h-36.19z"/></svg>
